icon/gr/accessibility.svg

<svg xmlns="http://www.w3.org/2000/svg" viewBox="0 0 24 24" height="1em" width="1em">
  <path fill="none" stroke="#000" stroke-linecap="round" stroke-linejoin="round" stroke-width="2" d="M4,8 L11,8 L11,14 L7,21 M20,8 L13,8 L13,14 L17,21 M12,5 C12.5522847,5 13,4.55228475 13,4 C13,3.44771525 12.5522847,3 12,3 C11.4477153,3 11,3.44771525 11,4 C11,4.55228475 11.4477153,5 12,5 Z M11,8 L13,8 L13,13 L11,13 L11,8 Z"/>
</svg>

<svg xmlns="http://www.w3.org/2000/svg" width="24" height="24"><path fill="none" stroke="#000" stroke-linecap="round" stroke-linejoin="round" stroke-width="2" d="M4 8h7v6l-4 7M20 8h-7v6l4 7M12 5a1 1 0 1 0 0-2 1 1 0 0 0 0 2Zm-1 3h2v5h-2V8Z"/></svg>
